X:265
T:B265-  The King's Delight
Q:1/4=120
M:6/4
L:1/4
K:D
d|d2da2a|f3/2e/2f3/2d/2ed|e3/2f/2ea3/2b/2 a/2g/2|f3e2:|d|\
d2da2a|f3/2e/2fdef|g3/2a/2gf3/2e/2f|e3/2d/2AB":s:"c|\
defg/2fe/2d|e3d2|]

